X:1
T:Mother's Delight #2
S:Paul O'Shaughnessy
Z:Juergen.Gier@post.rwth-aachen.de
M:C|
L:1/8
K:G
Bdgd BGGB|Ac=fc AFFc|Bdgd BGGB|(3ABA DF AGGc|\
Bdgd BGGB|Ac=fc AFFc|_B2BA Bgfd|1cAFG AGGc:|2cAFG AGGA|:\
_B4 B2GA|_BABd cBAB|Gdga gdga|bgaf dafa|\
~g2fa gfde|=fdc_B AFFA|Gg~g2 dgbg|fdcA BGGc:|
